X: 1
T: Emma
O: Trad Finland
M: 3/4
L: 1/4
K: Am
|: A | "Am"eee | cAc |     eee | cAc | "E7"BBB | dcB | "Am"A2A | A2 :|
|: e  | "Dm"a2a | agf  | "Am"e2e | edc  | "E7"BBB | dcB | "Am"A2A | A2 :|
